X:87
T: EIN VEILCHEN AUF DER WIESE STAND
N: B0115
O: Europa, Mitteleuropa, Deutschland
R: Ballade, Romanze
M: 2/4
L: 1/16
K: G
d2 | d3cB2A2 | G4A4 | B4z2
d2 | d3cB2A2 | G4A4 | B4z2
B2 | A2F2G2E2 | E2D2z2
D2 | c3BA2D2 | d3cB2
D2 | c3BA2D2 | d3cB2
A2 | G3AB3c | dgdcB2A2 | G6

@@@ Tune index: 1890
